public/images/2.svg

<svg width="237" height="237" viewBox="0 0 237 237" fill="none" xmlns="http://www.w3.org/2000/svg">
<g clip-path="url(#clip0_161_1047)">
<mask id="mask0_161_1047" style="mask-type:luminance" maskUnits="userSpaceOnUse" x="0" y="0" width="237" height="237">
<path d="M236.48 0H0V236.89H236.48V0Z" fill="white"/>
</mask>
<g mask="url(#mask0_161_1047)">
<path d="M118.23 236.46C53.06 236.46 0 183.4 0 118.23C0 53.06 53.06 0 118.23 0C183.4 0 236.46 53.06 236.46 118.23C236.46 183.4 183.4 236.46 118.23 236.46ZM118.23 1.74C53.99 1.74 1.75 53.99 1.75 118.23C1.75 182.47 53.99 234.71 118.23 234.71C182.47 234.71 234.71 182.47 234.71 118.23C234.71 53.99 182.47 1.74 118.23 1.74Z" fill="#23254E"/>
</g>
<mask id="mask1_161_1047" style="mask-type:luminance" maskUnits="userSpaceOnUse" x="43" y="107" width="17" height="66">
<path d="M59.4197 107.93H43.4297V172.9H59.4197V107.93Z" fill="white"/>
</mask>
<g mask="url(#mask1_161_1047)">
<path d="M51.5792 124.18C56.0692 124.18 59.7092 120.54 59.7092 116.05C59.7092 111.56 56.0692 107.92 51.5792 107.92C47.0892 107.92 43.4492 111.56 43.4492 116.05C43.4492 120.54 47.0892 124.18 51.5792 124.18ZM51.5792 132.31C47.0892 132.31 43.4492 135.95 43.4492 140.44C43.4492 144.93 47.0892 148.57 51.5792 148.57C56.0692 148.57 59.7092 144.93 59.7092 140.44C59.7092 135.95 56.0692 132.31 51.5792 132.31ZM51.5792 156.69C47.0892 156.69 43.4492 160.33 43.4492 164.82C43.4492 169.31 47.0892 172.95 51.5792 172.95C56.0692 172.95 59.7092 169.31 59.7092 164.82C59.7092 160.33 56.0692 156.69 51.5792 156.69Z" fill="#23254E"/>
</g>
</g>
<defs>
<clipPath id="clip0_161_1047">
<rect width="236.48" height="236.89" fill="white"/>
</clipPath>
</defs>
</svg>

<?xml version="1.0" encoding="UTF-8"?>
<svg id="Layer_2" data-name="Layer 2" xmlns="http://www.w3.org/2000/svg" xmlns:xlink="http://www.w3.org/1999/xlink" viewBox="0 0 236.48 236.89">
  <defs>
    <style>
      .cls-1 {
        fill: none;
      }

      .cls-2 {
        clip-path: url(#clippath-1);
      }

      .cls-3 {
        fill: #fff;
      }

      .cls-4 {
        clip-path: url(#clippath);
      }
    </style>
    <clipPath id="clippath">
      <rect class="cls-1" y="0" width="236.48" height="236.89"/>
    </clipPath>
    <clipPath id="clippath-1">
      <rect class="cls-1" x="43.43" y="107.93" width="15.99" height="64.97"/>
    </clipPath>
  </defs>
  <g id="Layer_1-2" data-name="Layer 1">
    <g class="cls-4">
      <path class="cls-3" d="M118.23,236.46C53.06,236.46,0,183.4,0,118.23S53.06,0,118.23,0s118.23,53.06,118.23,118.23-53.06,118.23-118.23,118.23ZM118.23,1.74C53.99,1.74,1.75,53.99,1.75,118.23s52.24,116.48,116.48,116.48,116.48-52.24,116.48-116.48S182.47,1.74,118.23,1.74Z"/>
    </g>
    <g class="cls-2">
      <path class="cls-3" d="M51.58,124.18c4.49,0,8.13-3.64,8.13-8.13s-3.64-8.13-8.13-8.13-8.13,3.64-8.13,8.13,3.64,8.13,8.13,8.13ZM51.58,132.31c-4.49,0-8.13,3.64-8.13,8.13s3.64,8.13,8.13,8.13,8.13-3.64,8.13-8.13-3.64-8.13-8.13-8.13ZM51.58,156.69c-4.49,0-8.13,3.64-8.13,8.13s3.64,8.13,8.13,8.13,8.13-3.64,8.13-8.13-3.64-8.13-8.13-8.13Z"/>
    </g>
  </g>
</svg>
